X: 12535
T: Farewell To Kennedy
R: jig
M: 6/8
K: Dmajor
|:~F3 AFA|B/c/dB AFE|~F3 AFE|FED B,A,B,|
F2 F AFA|B/c/dB AFA|~B3 Bcd|DEF E2 D:|
|:d2 d BAB|dAF D3|ded BAB|dge fdB|
ded BAB|dAF D2 E|~F3 Bcd|DEF E2 D:|

